X:273
T:Graham Townsend's Jig
R:jig
O:Cape Breton
Z:id:hn-jig-273
M:6/8
K:A
EAc EAd|EAc BAF|EAc EAd|cBA ~F3|
EAc EAd|~c3 efg|aec BAB|1 cAA AGF:|2 cAA Acd||
|:~e3 fdf|~e3 ecd|~e3 fga|~A3 AFE|
~e3 fdf|~e3 efg|aec BAB|1 cAA Acd:|2 cAA AGF||
